; generated by SuperSlicer 2.5.59 on 2023-08-26 at 17:16:44 UTC

; 

; external perimeters extrusion width = 0.65mm
; perimeters extrusion width = 0.72mm
; infill extrusion width = 0.72mm
; solid infill extrusion width = 0.72mm
; top infill extrusion width = 0.60mm
; support material extrusion width = 0.55mm
; first layer extrusion width = 0.72mm

; object:{"name":"alient_tent_v1_24","id":"alient_tent_v1_24.stl id:0 copy 0","object_center":[98.458427,88.888311,0.000000],"boundingbox_center":[98.458427,88.888311,33.341232],"boundingbox_size":[150.994715,120.807029,66.682465]}
; Total objects to print: 1
M486 T1
; plater:{"center":[98.458427,88.888311,0.000000],"boundingbox_center":[98.458427,88.888311,33.341232],"boundingbox_size":[150.994715,120.807029,66.682465]}

M73 P0 R114
M117 Time Left 1h54m5s
M201 X800 Y800 Z100 E10000 ; sets maximum accelerations, mm/sec^2
M203 X500 Y500 Z12 E120 ; sets maximum feedrates, mm / sec
M204 P2000 R1500 T1500 ; sets acceleration (P, T) and retract acceleration (R), mm/sec^2
M205 X8.00 Y8.00 Z0.20 E4.50 ; sets the jerk limits, mm/sec
M205 S0 T0 ; sets the minimum extruding and travel feed rate, mm/sec
;TYPE:Custom
M862.3 P "MK2.5" ; printer model check
M862.1 P0.6 ; nozzle diameter check
M115 U3.10.1 ; tell printer latest fw version
G90 ; use absolute coordinates
M83 ; extruder relative mode
M104 S210 ; set extruder temp
M140 S75 ; set bed temp
M190 S75 ; wait for bed temp
M109 S210 ; wait for extruder temp
G28 W ; home all without mesh bed level
G80 ; mesh bed leveling
G1 Z0.2 F720
G1 Y-3 F1000 ; go outside print area
G92 E0
M73 P0 R113
M117 Time Left 1h53m45s
G1 X60 E9 F1000 ; intro line
G1 X100 E12.5 F1000 ; intro line
G92 E0
M107
G21 ; set units to millimeters
G90 ; use absolute coordinates
M83 ; use relative distances for extrusion
M900 K0.04 ; Filament gcode LA 1.5
M900 K18 ; Filament gcode LA 1.0
;_TOOLCHANGE 0
M107
;LAYER_CHANGE
;Z:0.54
;HEIGHT:0.54
;BEFORE_LAYER_CHANGE
G92 E0.0
;0.54


M117 Time Left 1h53m41s
G1 E-0.8 F2100
M117 Time Left 1h53m38s
G1 Z0.4 F720
G1 Z0.54
;AFTER_LAYER_CHANGE
;0.54
M204 P800 T800
G1 Z0.94
G1 X31.879 Y28.487 F10800
G1 Z0.54 F720
M117 Time Left 1h53m38s
G1 E0.8 F2100
;TYPE:Skirt
;WIDTH:0.78
G1 F1200
G1 X22.129 Y40.283 E2.23621
G1 X21.306 Y41.685 E0.23739
G1 X20.646 Y43.442 E0.27435
M117 Time Left 1h53m37s
G1 X20.357 Y45.107 E0.24697
G1 X20.329 Y46.211 E0.16127
G1 X20.447 Y47.503 E0.18961
G1 X35.983 Y138.778 E13.52851
G1 X36.403 Y140.418 E0.24733
M117 Time Left 1h53m32s
G1 X37.109 Y141.969 E0.24908
M117 Time Left 1h53m32s
G1 X38.116 Y143.382 E0.25345
G1 X39.27 Y144.498 E0.2346
G1 X40.279 Y145.223 E0.18161
G1 X41.697 Y145.959 E0.23348
G1 X43.321 Y146.529 E0.25143
G1 X44.902 Y146.883 E0.23672
G1 X85.634 Y151.831 E5.99529
G1 X86.998 Y151.836 E0.19934
M117 Time Left 1h53m29s
G1 X123.599 Y149.58 E5.3582
G1 X126.154 Y149.204 E0.37723
M117 Time Left 1h53m27s
G1 X166.722 Y138.677 E6.12396
G1 X167.882 Y138.22 E0.18215
M117 Time Left 1h53m25s
G1 X169.054 Y137.536 E0.19841
G1 X170.163 Y136.619 E0.21023
G1 X170.931 Y135.789 E0.16519
G1 X171.97 Y134.298 E0.26563
M117 Time Left 1h53m25s
G1 X172.916 Y132.352 E0.31613
G1 X173.633 Y130.013 E0.35736
G1 X173.989 Y127.557 E0.36273
G1 X176.102 Y66.063 E8.99043
G1 X175.899 Y63.437 E0.3849
M117 Time Left 1h53m21s
G1 X175.088 Y60.799 E0.40325
G1 X174.568 Y59.744 E0.17184
G1 X173.683 Y58.39 E0.23631
G1 X172.313 Y56.934 E0.29226
G1 X170.67 Y55.841 E0.28833
M117 Time Left 1h53m21s
G1 X168.821 Y55.185 E0.28665
G1 X39.198 Y25.885 E19.41782
G1 X37.855 Y25.705 E0.19794
M117 Time Left 1h53m14s
G1 X36.191 Y25.814 E0.24367
G1 X34.633 Y26.31 E0.23889
M117 Time Left 1h53m14s
G1 X33.202 Y27.189 E0.24541
G1 X31.944 Y28.424 E0.25764
G1 X32.407 Y28.895 F10800
G1 F1200
G1 X32.39 Y28.912 E0.00355
G1 X22.688 Y40.642 E2.22419
G1 X21.914 Y41.953 E0.22255
M117 Time Left 1h53m12s
G1 X21.28 Y43.64 E0.26328
G1 X21.016 Y45.188 E0.2295
G1 X20.993 Y46.216 E0.15015
G1 X21.102 Y47.392 E0.17254
G1 X36.633 Y138.644 E13.5251
G1 X37.024 Y140.181 E0.23175
M117 Time Left 1h53m8s
G1 X37.692 Y141.652 E0.23613
G1 X38.63 Y142.963 E0.23549
G1 X39.709 Y143.999 E0.21857
G1 X40.619 Y144.653 E0.16374
G1 X41.938 Y145.341 E0.21738
G1 X43.516 Y145.894 E0.24427
G1 X44.997 Y146.226 E0.2218
G1 X85.852 Y151.179 E6.01331
G1 X123.559 Y148.917 E5.51941
M117 Time Left 1h53m5s
G1 X125.989 Y148.561 E0.35886
M117 Time Left 1h53m3s
G1 X166.539 Y138.039 E6.12128
G1 X167.608 Y137.615 E0.16805
M117 Time Left 1h53m1s
G1 X168.661 Y137 E0.17816
G1 X169.722 Y136.123 E0.2011
G1 X170.557 Y135.198 E0.18208
M117 Time Left 1h53m1s
G1 X171.769 Y133.283 E0.3312
G1 X172.536 Y131.462 E0.2887
G1 X173.016 Y129.723 E0.26361
G1 X173.326 Y127.52 E0.3251
G1 X175.438 Y66.041 E8.98834
G1 X175.242 Y63.535 E0.36725
M73 P0 R112
M117 Time Left 1h52m57s
G1 X174.469 Y61.042 E0.38138
G1 X173.14 Y58.772 E0.38432
G1 X171.863 Y57.422 E0.27165
M117 Time Left 1h52m57s
G1 X170.399 Y56.447 E0.25698
G1 X168.674 Y55.833 E0.26746
G1 X39.051 Y26.532 E19.41782
G1 X37.838 Y26.369 E0.17883
M73 P1 R112
M117 Time Left 1h52m50s
G1 X36.296 Y26.469 E0.22587
G1 X34.927 Y26.905 E0.20989
M117 Time Left 1h52m50s
G1 X33.6 Y27.721 E0.2277
G1 X32.471 Y28.832 E0.23133
;WIPE_START
G1 F8640
G1 X33.6 Y27.721 E-0.36556
G1 X34.927 Y26.905 E-0.35982
G1 X35.07 Y26.86 E-0.03461
;WIPE_END
G1 E-0.04 F2100
G1 Z0.94 F720
; printing object alient_tent_v1_24.stl id:0 copy 0
M486 S0
G1 X104.924 Y97.813 F10800
G1 Z0.54 F720
M117 Time Left 1h52m48s
G1 E0.8 F2100
;TYPE:Internal perimeter
;WIDTH:0.72
G1 F1200
G1 X105.635 Y97.364 E0.11183
G1 X105.605 Y98.26 E0.11915
G1 X104.999 Y97.862 E0.09638
;WIPE_START
G1 F8640
G1 X105.605 Y98.26 E-0.16744
G1 X105.635 Y97.364 E-0.20699
G1 X104.924 Y97.813 E-0.19427
;WIPE_END
G1 E-0.2313 F2100
G1 Z0.94 F720
G1 X105.395 Y104.404 F10800
G1 Z0.54 F720
G1 E0.8 F2100
M117 Time Left 1h52m48s
G1 F1200
G1 X102.467 Y104.304 E0.38947
G1 X101.484 Y104.307 E0.13062
G1 X100.97 Y104.385 E0.06913
G1 X101.102 Y103.624 E0.10266
G1 X101.131 Y103.036 E0.07828
G1 X101.08 Y102.435 E0.08015
G1 X101.03 Y102.219 E0.02947
G1 X101.921 Y101.988 E0.1224
G1 X102.535 Y101.58 E0.09798
G1 X102.461 Y102.307 E0.09708
G1 X104.065 Y102.206 E0.2136
G1 X104.539 Y102.117 E0.06419
G1 X104.982 Y101.879 E0.06681
G1 X105.495 Y101.487 E0.08574
G1 X105.398 Y104.314 E0.37589
;WIPE_START
G1 F8640
G1 X105.495 Y101.487 E-0.653
G1 X105.126 Y101.768 E-0.107
;WIPE_END
M117 Time Left 1h52m47s
G1 E-0.04 F2100
G1 Z0.94 F720
G1 X127.616 Y129.988 F10800
G1 Z0.54 F720
G1 E0.8 F2100
G1 F1200
G1 X127.577 Y130.014 E0.00615
G1 X127.174 Y130.391 E0.07341
G1 X126.842 Y130.832 E0.07341
G1 X126.591 Y131.324 E0.07341
G1 X126.43 Y131.853 E0.07341
G1 X126.363 Y132.401 E0.07341
G1 X126.393 Y132.952 E0.07341
G1 X126.517 Y133.49 E0.07341
G1 X126.734 Y133.999 E0.07341
G1 X127.035 Y134.462 E0.07341
G1 X127.412 Y134.865 E0.07341
G1 X127.853 Y135.197 E0.07341
M117 Time Left 1h52m46s
G1 X128.345 Y135.448 E0.07341
G1 X128.874 Y135.609 E0.07341
G1 X129.422 Y135.676 E0.07341
G1 X129.973 Y135.646 E0.07341
G1 X130.512 Y135.522 E0.07341
G1 X131.02 Y135.306 E0.07341
G1 X131.483 Y135.004 E0.07341
G1 X131.886 Y134.627 E0.07341
G1 X132.218 Y134.186 E0.07341
G1 X132.469 Y133.694 E0.07341
G1 X132.63 Y133.165 E0.07341
G1 X132.697 Y132.617 E0.07341
G1 X132.667 Y132.066 E0.07341
G1 X132.543 Y131.528 E0.07341
G1 X132.327 Y131.019 E0.07341
G1 X132.025 Y130.556 E0.07341
G1 X131.648 Y130.153 E0.07341
G1 X131.207 Y129.821 E0.07341
G1 X130.715 Y129.57 E0.07341
G1 X130.186 Y129.409 E0.07341
G1 X129.638 Y129.342 E0.07341
G1 X129.087 Y129.372 E0.07341
G1 X128.549 Y129.496 E0.07341
G1 X128.04 Y129.712 E0.07341
G1 X127.692 Y129.939 E0.0553
G1 X127.951 Y130.491 F10800
;TYPE:External perimeter
G1 F1200
G1 X127.625 Y130.796 E0.05936
G1 X127.356 Y131.153 E0.05936
G1 X127.154 Y131.551 E0.05936
G1 X127.024 Y131.978 E0.05936
G1 X126.969 Y132.422 E0.05936
G1 X126.993 Y132.868 E0.05936
G1 X127.094 Y133.303 E0.05936
G1 X127.269 Y133.714 E0.05936
G1 X127.512 Y134.088 E0.05936
G1 X127.817 Y134.414 E0.05936
G1 X128.174 Y134.683 E0.05936
G1 X128.572 Y134.885 E0.05936
M117 Time Left 1h52m45s
G1 X128.999 Y135.016 E0.05936
G1 X129.443 Y135.07 E0.05936
G1 X129.889 Y135.046 E0.05936
G1 X130.324 Y134.945 E0.05936
G1 X130.735 Y134.77 E0.05936
G1 X131.109 Y134.527 E0.05936
G1 X131.435 Y134.222 E0.05936
G1 X131.704 Y133.865 E0.05936
G1 X131.906 Y133.467 E0.05936
G1 X132.037 Y133.04 E0.05936
G1 X132.091 Y132.596 E0.05936
G1 X132.067 Y132.15 E0.05936
G1 X131.966 Y131.715 E0.05936
G1 X131.791 Y131.304 E0.05936
G1 X131.548 Y130.93 E0.05936
G1 X131.243 Y130.604 E0.05936
G1 X130.886 Y130.335 E0.05936
G1 X130.488 Y130.133 E0.05936
G1 X130.061 Y130.002 E0.05936
G1 X129.618 Y129.948 E0.05936
G1 X129.172 Y129.972 E0.05936
G1 X128.736 Y130.073 E0.05936
G1 X128.325 Y130.248 E0.05936
G1 X128.027 Y130.442 E0.0474
;WIPE_START
G1 X127.388 Y130.283 F10800
;WIPE_END
;WIPE_START
G1 F8640
G1 X127.101 Y130.994 E-0.17697
G1 X126.874 Y131.438 E-0.11524
G1 X126.729 Y131.916 E-0.11525
G1 X126.668 Y132.411 E-0.11524
G1 X126.695 Y132.91 E-0.11525
G1 X126.808 Y133.396 E-0.11524
G1 X126.819 Y133.423 E-0.00681
;WIPE_END
G1 E-0.04 F2100
G1 Z0.94 F720
G1 X170.066 Y74.903 F10800
G1 Z0.54 F720
M117 Time Left 1h52m43s
G1 E0.8 F2100
;TYPE:Internal perimeter
G1 F1200
G1 X169.334 Y73.535 E0.20628
G1 X169.083 Y73.155 E0.06045
G1 X168.804 Y72.806 E0.05937
G1 X168.501 Y72.487 E0.0585
G1 X168.177 Y72.196 E0.05789
G1 X167.818 Y71.921 E0.06009
G1 X167.099 Y71.479 E0.1122
G1 X166.299 Y71.112 E0.11695
G1 X165.438 Y70.823 E0.1207
G1 X164.521 Y70.607 E0.12528
G1 X163.037 Y70.367 E0.19973
G1 X162.582 Y70.225 E0.06344
M117 Time Left 1h52m43s
G1 X162.139 Y70.022 E0.06466
G1 X161.726 Y69.765 E0.06465
G1 X161.349 Y69.458 E0.06465
G1 X161.014 Y69.106 E0.06465
G1 X160.726 Y68.714 E0.06465
G1 X160.49 Y68.288 E0.06465
G1 X160.31 Y67.837 E0.06466
G1 X160.183 Y67.345 E0.06744
G1 X159.961 Y65.983 E0.18346
G1 X159.798 Y64.433 E0.2071
G1 X159.723 Y63.007 E0.18979
G1 X159.7 Y60.496 E0.33387
G1 X155.084 Y60.241 E0.61448
G1 X148.244 Y59.977 E0.90978
G1 X147.943 Y62.146 E0.29105
M117 Time Left 1h52m41s
G1 X149.463 Y62.522 E0.20816
G1 X149.852 Y62.66 E0.0549
G1 X150.206 Y62.828 E0.05208
G1 X150.532 Y63.028 E0.0508
G1 X150.837 Y63.263 E0.05116
G1 X151.127 Y63.538 E0.05312
G1 X151.4 Y63.85 E0.05505
G1 X151.663 Y64.206 E0.05886
G1 X152.12 Y64.963 E0.1176
G1 X152.555 Y65.847 E0.13095
G1 X153.411 Y67.794 E0.28269
G1 X153.893 Y68.796 E0.14778
G1 X154.173 Y69.308 E0.07757
G1 X154.477 Y69.805 E0.07748
G1 X154.813 Y70.289 E0.07825
G1 X155.187 Y70.754 E0.07924
G1 X155.602 Y71.194 E0.0805
G1 X156.064 Y71.605 E0.08209
G1 X156.572 Y71.977 E0.08375
G1 X157.127 Y72.306 E0.08577
G1 X157.674 Y72.564 E0.08037
M117 Time Left 1h52m41s
G1 X158.254 Y72.779 E0.08225
G1 X158.842 Y72.944 E0.08119
G1 X159.944 Y73.167 E0.14935
G1 X160.417 Y73.293 E0.06515
G1 X160.906 Y73.455 E0.06848
G1 X161.379 Y73.646 E0.06776
G1 X161.834 Y73.866 E0.06716
G1 X162.271 Y74.113 E0.06674
G1 X162.66 Y74.368 E0.06181
G1 X163.468 Y74.967 E0.13364
G1 X163.896 Y75.22 E0.06615
G1 X164.332 Y75.429 E0.06427
G1 X164.758 Y75.594 E0.06063
G1 X165.396 Y75.786 E0.08857
G1 X166.122 Y75.927 E0.09834
G1 X166.886 Y75.988 E0.10194
G1 X167.557 Y75.961 E0.08916
G1 X167.961 Y75.899 E0.05435
G1 X168.358 Y75.797 E0.05449
G1 X168.72 Y75.656 E0.05164
G1 X169.994 Y74.948 E0.1937
G1 X169.255 Y74.668 F10800
;TYPE:External perimeter
G1 F1200
G1 X168.814 Y73.844 E0.12415
G1 X168.594 Y73.511 E0.05314
G1 X168.348 Y73.203 E0.05231
G1 X168.08 Y72.921 E0.0518
G1 X167.791 Y72.662 E0.05159
G1 X167.475 Y72.419 E0.0529
G1 X166.814 Y72.013 E0.10318
G1 X166.076 Y71.675 E0.10782
G1 X165.272 Y71.404 E0.11272
G1 X164.403 Y71.2 E0.11869
M117 Time Left 1h52m40s
G1 X162.898 Y70.957 E0.2026
G1 X162.365 Y70.79 E0.07428
G1 X161.853 Y70.556 E0.07487
G1 X161.375 Y70.258 E0.07486
G1 X160.938 Y69.902 E0.07486
G1 X160.55 Y69.494 E0.07486
G1 X160.216 Y69.04 E0.07486
G1 X159.943 Y68.548 E0.07486
G1 X159.734 Y68.025 E0.07486
G1 X159.591 Y67.469 E0.0762
G1 X159.362 Y66.063 E0.1894
G1 X159.196 Y64.481 E0.21147
G1 X159.12 Y63.026 E0.19363
G1 X159.101 Y61.068 E0.26031
G1 X155.056 Y60.844 E0.53853
G1 X148.767 Y60.602 E0.83645
G1 X148.616 Y61.69 E0.14604
M117 Time Left 1h52m38s
G1 X149.637 Y61.943 E0.13976
G1 X150.084 Y62.101 E0.06301
G1 X150.495 Y62.296 E0.06053
G1 X150.875 Y62.53 E0.05934
G1 X151.23 Y62.803 E0.0595
G1 X151.563 Y63.119 E0.06095
G1 X151.871 Y63.47 E0.06211
G1 X152.161 Y63.863 E0.06484
G1 X152.414 Y64.259 E0.06249
G1 X152.654 Y64.681 E0.06452
G1 X153.103 Y65.592 E0.13502
G1 X153.96 Y67.541 E0.28306
G1 X154.431 Y68.52 E0.14434
G1 X154.696 Y69.006 E0.07355
G1 X154.983 Y69.475 E0.07317
G1 X155.297 Y69.927 E0.0731
G1 X155.643 Y70.356 E0.07327
G1 X156.024 Y70.76 E0.0738
G1 X156.444 Y71.134 E0.07478
G1 X156.905 Y71.473 E0.07602
G1 X157.411 Y71.772 E0.07808
G1 X157.908 Y72.007 E0.07312
M117 Time Left 1h52m38s
G1 X158.441 Y72.204 E0.07548
G1 X158.984 Y72.356 E0.075
G1 X160.082 Y72.578 E0.14883
G1 X160.59 Y72.714 E0.06999
G1 X161.115 Y72.888 E0.07348
G1 X161.624 Y73.094 E0.07294
G1 X162.114 Y73.331 E0.07241
G1 X162.585 Y73.597 E0.07195
G1 X163.006 Y73.872 E0.06675
G1 X163.802 Y74.463 E0.13178
G1 X164.181 Y74.687 E0.0585
G1 X164.572 Y74.875 E0.05769
G1 X164.954 Y75.022 E0.05438
G1 X165.54 Y75.199 E0.08142
G1 X166.204 Y75.327 E0.08981
G1 X166.899 Y75.383 E0.09266
G1 X167.499 Y75.359 E0.07982
G1 X167.84 Y75.307 E0.04585
G1 X168.172 Y75.221 E0.04565
G1 X168.462 Y75.108 E0.04134
G1 X169.176 Y74.711 E0.1086
;WIPE_START
G1 X169.782 Y74.382 F10800
;WIPE_END
;WIPE_START
G1 F8640
G1 X169.072 Y73.69 E-0.22888
G1 X168.837 Y73.334 E-0.09862
G1 X168.575 Y73.006 E-0.09697
G1 X168.289 Y72.705 E-0.09578
G1 X167.982 Y72.431 E-0.09506
G1 X167.645 Y72.172 E-0.0981
G1 X167.473 Y72.066 E-0.0466
;WIPE_END
G1 E-0.04 F2100
G1 Z0.94 F720
G1 X165.712 Y69.161 F10800
G1 Z0.54 F720
M117 Time Left 1h52m37s
G1 E0.8 F2100
;TYPE:Internal perimeter
G1 F1200
G1 X165.75 Y69.135 E0.00615
G1 X166.154 Y68.758 E0.07341
G1 X166.486 Y68.317 E0.07341
G1 X166.737 Y67.825 E0.07341
G1 X166.898 Y67.296 E0.07341
G1 X166.965 Y66.748 E0.07341
G1 X166.935 Y66.197 E0.07341
G1 X166.81 Y65.659 E0.07341
G1 X166.594 Y65.15 E0.07341
G1 X166.293 Y64.687 E0.07341
G1 X165.916 Y64.284 E0.07341
G1 X165.475 Y63.952 E0.07341
G1 X164.982 Y63.701 E0.07341
G1 X164.454 Y63.54 E0.07341
G1 X163.906 Y63.473 E0.07341
G1 X163.354 Y63.503 E0.07341
G1 X162.816 Y63.627 E0.07341
G1 X162.308 Y63.843 E0.07341
G1 X161.845 Y64.145 E0.07341
G1 X161.441 Y64.522 E0.07341
G1 X161.109 Y64.963 E0.07341
G1 X160.859 Y65.455 E0.07341
G1 X160.698 Y65.984 E0.07341
G1 X160.631 Y66.532 E0.07341
G1 X160.66 Y67.083 E0.07341
G1 X160.785 Y67.621 E0.07341
G1 X161.001 Y68.13 E0.07341
G1 X161.302 Y68.593 E0.07341
G1 X161.679 Y68.996 E0.07341
G1 X162.121 Y69.328 E0.07341
G1 X162.613 Y69.579 E0.07341
G1 X163.141 Y69.74 E0.07341
G1 X163.69 Y69.807 E0.07341
M117 Time Left 1h52m36s
G1 X164.241 Y69.777 E0.07341
G1 X164.779 Y69.653 E0.07341
G1 X165.287 Y69.437 E0.07341
G1 X165.636 Y69.21 E0.0553
G1 X165.377 Y68.658 F10800
;TYPE:External perimeter
G1 F1200
G1 X165.703 Y68.353 E0.05936
G1 X165.972 Y67.996 E0.05936
G1 X166.174 Y67.598 E0.05936
G1 X166.304 Y67.171 E0.05936
G1 X166.358 Y66.727 E0.05936
G1 X166.335 Y66.281 E0.05936
G1 X166.234 Y65.846 E0.05936
G1 X166.059 Y65.435 E0.05936
G1 X165.816 Y65.061 E0.05936
G1 X165.511 Y64.735 E0.05936
G1 X165.154 Y64.466 E0.05936
G1 X164.756 Y64.264 E0.05936
G1 X164.329 Y64.133 E0.05936
G1 X163.885 Y64.079 E0.05936
G1 X163.439 Y64.103 E0.05936
G1 X163.004 Y64.204 E0.05936
G1 X162.593 Y64.379 E0.05936
G1 X162.219 Y64.622 E0.05936
G1 X161.892 Y64.927 E0.05936
G1 X161.624 Y65.284 E0.05936
G1 X161.421 Y65.682 E0.05936
G1 X161.291 Y66.109 E0.05936
G1 X161.237 Y66.553 E0.05936
G1 X161.261 Y66.999 E0.05936
G1 X161.362 Y67.434 E0.05936
G1 X161.536 Y67.845 E0.05936
G1 X161.78 Y68.219 E0.05936
G1 X162.085 Y68.545 E0.05936
G1 X162.442 Y68.814 E0.05936
G1 X162.84 Y69.016 E0.05936
G1 X163.267 Y69.147 E0.05936
G1 X163.71 Y69.201 E0.05936
G1 X164.156 Y69.177 E0.05936
G1 X164.591 Y69.076 E0.05936
G1 X165.002 Y68.901 E0.05936
G1 X165.301 Y68.707 E0.0474
;WIPE_START
