; generated by SuperSlicer 2.5.59 on 2023-08-26 at 15:08:59 UTC

; 

; external perimeters extrusion width = 0.65mm
; perimeters extrusion width = 0.72mm
; infill extrusion width = 0.72mm
; solid infill extrusion width = 0.72mm
; top infill extrusion width = 0.60mm
; support material extrusion width = 0.55mm
; first layer extrusion width = 0.72mm

; object:{"name":"alient_tent_v1_24","id":"alient_tent_v1_24.stl id:0 copy 0","object_center":[91.320001,96.904608,0.000000],"boundingbox_center":[91.320001,96.904608,33.341232],"boundingbox_size":[153.426821,147.602382,66.682465]}
; Total objects to print: 1
M486 T1
; plater:{"center":[91.320001,96.904608,0.000000],"boundingbox_center":[91.320001,96.904608,33.341232],"boundingbox_size":[153.426821,147.602382,66.682465]}

M73 P0 R114
M117 Time Left 1h54m1s
M201 X800 Y800 Z100 E10000 ; sets maximum accelerations, mm/sec^2
M203 X500 Y500 Z12 E120 ; sets maximum feedrates, mm / sec
M204 P2000 R1500 T1500 ; sets acceleration (P, T) and retract acceleration (R), mm/sec^2
M205 X8.00 Y8.00 Z0.20 E4.50 ; sets the jerk limits, mm/sec
M205 S0 T0 ; sets the minimum extruding and travel feed rate, mm/sec
;TYPE:Custom
M862.3 P "MK2.5" ; printer model check
M862.1 P0.6 ; nozzle diameter check
M115 U3.10.1 ; tell printer latest fw version
G90 ; use absolute coordinates
M83 ; extruder relative mode
M104 S210 ; set extruder temp
M140 S75 ; set bed temp
M190 S75 ; wait for bed temp
M109 S210 ; wait for extruder temp
G28 W ; home all without mesh bed level
G80 ; mesh bed leveling
G1 Z0.2 F720
G1 Y-3 F1000 ; go outside print area
G92 E0
M73 P0 R113
M117 Time Left 1h53m40s
G1 X60 E9 F1000 ; intro line
G1 X100 E12.5 F1000 ; intro line
G92 E0
M107
G21 ; set units to millimeters
G90 ; use absolute coordinates
M83 ; use relative distances for extrusion
M900 K0.04 ; Filament gcode LA 1.5
M900 K18 ; Filament gcode LA 1.0
;_TOOLCHANGE 0
M107
;LAYER_CHANGE
;Z:0.54
;HEIGHT:0.54
;BEFORE_LAYER_CHANGE
G92 E0.0
;0.54


M117 Time Left 1h53m37s
G1 E-0.8 F2100
M117 Time Left 1h53m34s
G1 Z0.4 F720
G1 Z0.54
;AFTER_LAYER_CHANGE
;0.54
M204 P800 T800
G1 Z0.94
G1 X49.312 Y73.597 F10800
G1 Z0.54 F720
M117 Time Left 1h53m33s
G1 E0.8 F2100
;TYPE:Skirt
;WIDTH:0.78
G1 F1200
G1 X16.467 Y95.605 E5.77704
G1 X14.977 Y96.882 E0.28667
M117 Time Left 1h53m31s
G1 X14.017 Y98.177 E0.23554
G1 X13.082 Y100.345 E0.34498
G1 X12.744 Y101.926 E0.23631
G1 X12.639 Y103.098 E0.17184
G1 X12.785 Y105.591 E0.3649
G1 X13.543 Y108.266 E0.40631
G1 X37.685 Y164.988 E9.00747
G1 X38.805 Y167.005 E0.33707
M117 Time Left 1h53m28s
G1 X39.946 Y168.548 E0.28042
G1 X41.388 Y170.04 E0.30316
G1 X43.285 Y171.448 E0.34523
G1 X44.515 Y172.068 E0.20117
G1 X45.879 Y172.524 E0.21023
G1 X47.22 Y172.741 E0.19841
G1 X48.466 Y172.749 E0.18214
G1 X90.105 Y167.974 E6.12396
G1 X92.623 Y167.406 E0.37722
M117 Time Left 1h53m25s
G1 X127.585 Y156.341 E5.3582
G1 X128.856 Y155.846 E0.19934
M117 Time Left 1h53m23s
G1 X165.08 Y136.573 E5.99527
G1 X166.427 Y135.674 E0.23674
M117 Time Left 1h53m21s
G1 X167.737 Y134.558 E0.25143
M117 Time Left 1h53m21s
G1 X168.795 Y133.361 E0.23349
G1 X169.476 Y132.321 E0.1816
G1 X170.152 Y130.865 E0.23459
G1 X170.583 Y129.184 E0.25347
G1 X170.683 Y127.483 E0.24908
G1 X170.485 Y125.802 E0.24733
G1 X152.138 Y35.05 E13.5285
G1 X151.784 Y33.802 E0.1896
M117 Time Left 1h53m15s
G1 X151.228 Y32.513 E0.20507
G1 X150.21 Y30.961 E0.27121
G1 X149.066 Y29.767 E0.24161
G1 X147.748 Y28.77 E0.24147
G1 X134.476 Y21.341 E2.22235
G1 X132.928 Y20.686 E0.24558
M117 Time Left 1h53m14s
G1 X131.288 Y20.381 E0.24379
G1 X130.305 Y20.39 E0.14364
G1 X129.01 Y20.627 E0.19226
G1 X127.831 Y21.078 E0.18445
G1 X126.545 Y21.849 E0.21916
G1 X49.387 Y73.547 E13.57066
G1 X49.757 Y74.098 F10800
M117 Time Left 1h53m9s
G1 F1200
G1 X16.836 Y96.157 E5.79019
G1 X15.448 Y97.35 E0.26748
M117 Time Left 1h53m7s
G1 X14.573 Y98.54 E0.21588
G1 X13.727 Y100.506 E0.31269
G1 X13.303 Y103.102 E0.38432
G1 X13.443 Y105.503 E0.35153
G1 X14.164 Y108.03 E0.38391
G1 X38.29 Y164.715 E9.00161
M117 Time Left 1h53m6s
G1 X39.372 Y166.66 E0.3251
M117 Time Left 1h53m3s
G1 X40.445 Y168.11 E0.26361
G1 X41.816 Y169.533 E0.2887
G1 X43.636 Y170.884 E0.33119
G1 X44.748 Y171.446 E0.18209
G1 X46.053 Y171.883 E0.2011
G1 X47.257 Y172.078 E0.17816
G1 X48.407 Y172.088 E0.16805
G1 X90.028 Y167.315 E6.12128
G1 X92.423 Y166.773 E0.35885
M117 Time Left 1h53m1s
G1 X128.418 Y155.316 E5.51941
M117 Time Left 1h53m0s
G1 X164.754 Y135.994 E6.01329
M73 P0 R112
M117 Time Left 1h52m59s
G1 X166.017 Y135.152 E0.22182
M117 Time Left 1h52m57s
G1 X167.29 Y134.068 E0.24426
G1 X168.273 Y132.951 E0.21738
G1 X168.888 Y132.014 E0.16373
G1 X169.52 Y130.659 E0.21857
G1 X169.924 Y129.098 E0.2355
G1 X170.019 Y127.485 E0.23613
G1 X169.83 Y125.91 E0.23175
G1 X151.487 Y35.182 E13.52509
G1 X151.166 Y34.045 E0.17253
M73 P1 R112
M117 Time Left 1h52m51s
G1 X150.633 Y32.809 E0.19672
G1 X149.702 Y31.389 E0.24817
G1 X148.635 Y30.272 E0.22557
G1 X147.403 Y29.337 E0.2261
G1 X134.187 Y21.939 E2.21303
G1 X132.749 Y21.326 E0.2284
M117 Time Left 1h52m50s
G1 X131.227 Y21.043 E0.22611
G1 X130.378 Y21.05 E0.12412
G1 X129.21 Y21.26 E0.17339
G1 X128.135 Y21.668 E0.16806
G1 X126.914 Y22.4 E0.20794
G1 X49.832 Y74.048 E13.55751
;WIPE_START
G1 F8640
M117 Time Left 1h52m45s
G1 X52.566 Y72.216 E-0.76
;WIPE_END
G1 E-0.04 F2100
G1 Z0.94 F720
; printing object alient_tent_v1_24.stl id:0 copy 0
M486 S0
G1 X91.434 Y112.389 F10800
G1 Z0.54 F720
M117 Time Left 1h52m44s
G1 E0.8 F2100
;TYPE:Internal perimeter
;WIDTH:0.72
G1 F1200
G1 X90.939 Y113.031 E0.10764
G1 X90.596 Y112.224 E0.11653
G1 X91.345 Y112.372 E0.10148
;WIPE_START
G1 F8640
G1 X90.596 Y112.224 E-0.17629
G1 X90.939 Y113.031 E-0.20244
G1 X91.434 Y112.389 E-0.187
;WIPE_END
G1 E-0.23427 F2100
G1 Z0.94 F720
G1 X96.64 Y115.096 F10800
G1 Z0.54 F720
G1 E0.8 F2100
G1 F1200
G1 X96.671 Y115.316 E0.02947
G1 X96.839 Y115.895 E0.08015
G1 X97.079 Y116.433 E0.07827
M117 Time Left 1h52m44s
G1 X97.469 Y117.085 E0.10103
G1 X96.968 Y117.209 E0.06862
G1 X96.475 Y117.384 E0.06957
G1 X93.354 Y118.707 E0.45054
G1 X92.216 Y116.032 E0.38645
G1 X93.045 Y116.246 E0.11376
G1 X93.589 Y116.237 E0.0723
G1 X95.347 Y115.715 E0.24373
G1 X95.005 Y115.042 E0.10033
G1 X95.725 Y115.202 E0.09806
G1 X96.551 Y115.107 E0.11044
;WIPE_START
G1 F8640
G1 X95.725 Y115.202 E-0.19186
G1 X95.005 Y115.042 E-0.17036
G1 X95.347 Y115.715 E-0.17429
G1 X94.419 Y115.99 E-0.2235
;WIPE_END
G1 E-0.04 F2100
G1 Z0.94 F720
G1 X144.293 Y85.194 F10800
M117 Time Left 1h52m42s
G1 Z0.54 F720
G1 E0.8 F2100
G1 F1200
G1 X144.224 Y85.217 E0.00961
G1 X143.736 Y85.476 E0.07341
G1 X143.301 Y85.817 E0.07341
G1 X142.932 Y86.227 E0.07341
G1 X142.64 Y86.696 E0.07341
G1 X142.433 Y87.208 E0.07341
G1 X142.319 Y87.749 E0.07341
G1 X142.3 Y88.301 E0.07341
G1 X142.377 Y88.848 E0.07341
G1 X142.548 Y89.373 E0.07341
G1 X142.808 Y89.86 E0.07341
G1 X143.148 Y90.295 E0.07341
M117 Time Left 1h52m42s
G1 X143.559 Y90.664 E0.07341
G1 X144.028 Y90.957 E0.07341
G1 X144.54 Y91.163 E0.07341
G1 X145.08 Y91.278 E0.07341
G1 X145.632 Y91.296 E0.07341
G1 X146.179 Y91.219 E0.07341
G1 X146.704 Y91.048 E0.07341
G1 X147.192 Y90.788 E0.07341
G1 X147.627 Y90.448 E0.07341
G1 X147.996 Y90.037 E0.07341
G1 X148.288 Y89.569 E0.07341
G1 X148.495 Y89.056 E0.07341
G1 X148.609 Y88.516 E0.07341
G1 X148.628 Y87.964 E0.07341
G1 X148.551 Y87.417 E0.07341
G1 X148.38 Y86.892 E0.07341
G1 X148.12 Y86.405 E0.07341
G1 X147.78 Y85.97 E0.07341
G1 X147.369 Y85.6 E0.07341
G1 X146.9 Y85.308 E0.07341
G1 X146.388 Y85.102 E0.07341
G1 X145.848 Y84.987 E0.07341
G1 X145.296 Y84.968 E0.07341
G1 X144.749 Y85.046 E0.07341
G1 X144.378 Y85.166 E0.05184
G1 X144.886 Y85.636 F10800
;TYPE:External perimeter
G1 F1200
G1 X144.461 Y85.775 E0.05936
G1 X144.067 Y85.985 E0.05936
G1 X143.715 Y86.26 E0.05936
G1 X143.417 Y86.592 E0.05936
G1 X143.18 Y86.971 E0.05936
G1 X143.013 Y87.385 E0.05936
G1 X142.921 Y87.822 E0.05936
G1 X142.906 Y88.268 E0.05936
G1 X142.968 Y88.711 E0.05936
G1 X143.106 Y89.135 E0.05936
G1 X143.316 Y89.53 E0.05936
G1 X143.592 Y89.881 E0.05936
M117 Time Left 1h52m41s
G1 X143.924 Y90.18 E0.05936
G1 X144.303 Y90.416 E0.05936
G1 X144.717 Y90.583 E0.05936
G1 X145.154 Y90.676 E0.05936
G1 X145.6 Y90.691 E0.05936
G1 X146.042 Y90.628 E0.05936
G1 X146.467 Y90.49 E0.05936
G1 X146.861 Y90.28 E0.05936
G1 X147.213 Y90.005 E0.05936
G1 X147.512 Y89.673 E0.05936
G1 X147.748 Y89.294 E0.05936
G1 X147.915 Y88.88 E0.05936
G1 X148.007 Y88.443 E0.05936
G1 X148.023 Y87.996 E0.05936
G1 X147.96 Y87.554 E0.05936
G1 X147.822 Y87.129 E0.05936
G1 X147.612 Y86.735 E0.05936
G1 X147.337 Y86.384 E0.05936
G1 X147.004 Y86.085 E0.05936
G1 X146.626 Y85.849 E0.05936
G1 X146.211 Y85.682 E0.05936
G1 X145.774 Y85.589 E0.05936
G1 X145.328 Y85.574 E0.05936
G1 X144.975 Y85.624 E0.0474
;WIPE_START
G1 X144.464 Y85.21 F10800
;WIPE_END
;WIPE_START
G1 F8640
G1 X143.903 Y85.732 E-0.17697
G1 X143.51 Y86.04 E-0.11524
G1 X143.176 Y86.411 E-0.11525
G1 X142.912 Y86.834 E-0.11524
G1 X142.725 Y87.297 E-0.11524
G1 X142.622 Y87.786 E-0.11525
G1 X142.621 Y87.815 E-0.00681
;WIPE_END
G1 E-0.04 F2100
G1 Z0.94 F720
G1 X84.094 Y153.95 F10800
G1 Z0.54 F720
M117 Time Left 1h52m39s
G1 E0.8 F2100
;TYPE:Internal perimeter
G1 F1200
G1 X84.112 Y153.444 E0.06726
G1 X84.034 Y152.897 E0.07341
G1 X83.863 Y152.372 E0.07341
G1 X83.604 Y151.884 E0.07341
G1 X83.263 Y151.45 E0.07341
G1 X82.853 Y151.08 E0.07341
G1 X82.384 Y150.788 E0.07341
G1 X81.872 Y150.581 E0.07341
G1 X81.331 Y150.467 E0.07341
G1 X80.779 Y150.448 E0.07341
G1 X80.232 Y150.525 E0.07341
G1 X79.707 Y150.697 E0.07341
G1 X79.22 Y150.956 E0.07341
G1 X78.785 Y151.297 E0.07341
M117 Time Left 1h52m39s
G1 X78.416 Y151.707 E0.07341
G1 X78.123 Y152.176 E0.07341
G1 X77.917 Y152.688 E0.07341
G1 X77.802 Y153.229 E0.07341
G1 X77.783 Y153.781 E0.07341
G1 X77.861 Y154.327 E0.07341
G1 X78.032 Y154.853 E0.07341
G1 X78.292 Y155.34 E0.07341
G1 X78.632 Y155.775 E0.07341
G1 X79.043 Y156.144 E0.07341
G1 X79.511 Y156.437 E0.07341
G1 X80.024 Y156.643 E0.07341
G1 X80.564 Y156.758 E0.07341
G1 X81.116 Y156.776 E0.07341
G1 X81.663 Y156.699 E0.07341
G1 X82.188 Y156.528 E0.07341
G1 X82.675 Y156.268 E0.07341
G1 X83.11 Y155.928 E0.07341
G1 X83.48 Y155.517 E0.07341
G1 X83.772 Y155.049 E0.07341
G1 X83.978 Y154.536 E0.07341
G1 X84.084 Y154.039 E0.0676
G1 X83.491 Y153.923 F10800
;TYPE:External perimeter
G1 F1200
G1 X83.506 Y153.476 E0.05936
G1 X83.444 Y153.034 E0.05936
G1 X83.305 Y152.609 E0.05936
G1 X83.095 Y152.215 E0.05936
G1 X82.82 Y151.863 E0.05936
G1 X82.488 Y151.565 E0.05936
G1 X82.109 Y151.328 E0.05936
G1 X81.695 Y151.162 E0.05936
G1 X81.258 Y151.069 E0.05936
G1 X80.812 Y151.054 E0.05936
G1 X80.369 Y151.116 E0.05936
G1 X79.945 Y151.255 E0.05936
G1 X79.55 Y151.465 E0.05936
G1 X79.199 Y151.74 E0.05936
G1 X78.9 Y152.072 E0.05936
M117 Time Left 1h52m38s
G1 X78.664 Y152.451 E0.05936
G1 X78.497 Y152.865 E0.05936
G1 X78.404 Y153.302 E0.05936
G1 X78.389 Y153.748 E0.05936
G1 X78.452 Y154.191 E0.05936
G1 X78.59 Y154.615 E0.05936
G1 X78.8 Y155.009 E0.05936
G1 X79.075 Y155.361 E0.05936
G1 X79.407 Y155.66 E0.05936
G1 X79.786 Y155.896 E0.05936
G1 X80.2 Y156.063 E0.05936
G1 X80.637 Y156.156 E0.05936
G1 X81.084 Y156.171 E0.05936
G1 X81.526 Y156.108 E0.05936
G1 X81.951 Y155.97 E0.05936
G1 X82.345 Y155.76 E0.05936
G1 X82.696 Y155.485 E0.05936
G1 X82.995 Y155.153 E0.05936
G1 X83.231 Y154.774 E0.05936
G1 X83.398 Y154.359 E0.05936
G1 X83.472 Y154.011 E0.0474
;WIPE_START
G1 X84.036 Y153.672 F10800
;WIPE_END
;WIPE_START
G1 F8640
G1 X83.737 Y152.966 E-0.17697
G1 X83.582 Y152.491 E-0.11524
G1 X83.348 Y152.051 E-0.11525
G1 X83.04 Y151.658 E-0.11524
G1 X82.669 Y151.324 E-0.11524
G1 X82.246 Y151.06 E-0.11525
G1 X82.218 Y151.049 E-0.00681
;WIPE_END
G1 E-0.04 F2100
G1 Z0.94 F720
G1 X22.399 Y114.45 F10800
G1 Z0.54 F720
M117 Time Left 1h52m36s
G1 E0.8 F2100
;TYPE:Internal perimeter
G1 F1200
G1 X22.398 Y114.454 E0.00062
G1 X23.926 Y114.668 E0.20503
G1 X24.315 Y114.67 E0.05165
G1 X24.722 Y114.622 E0.05449
G1 X25.121 Y114.535 E0.05434
G1 X25.756 Y114.318 E0.08916
G1 X26.447 Y113.986 E0.10194
G1 X27.074 Y113.593 E0.09834
G1 X27.601 Y113.185 E0.08856
G1 X27.938 Y112.878 E0.06064
G1 X28.27 Y112.526 E0.06428
G1 X28.579 Y112.136 E0.06615
G1 X29.116 Y111.286 E0.13364
G1 X29.388 Y110.909 E0.06181
G1 X29.707 Y110.52 E0.06674
G1 X30.052 Y110.152 E0.06716
G1 X30.424 Y109.803 E0.06776
G1 X30.822 Y109.476 E0.06848
G1 X31.219 Y109.188 E0.06514
M117 Time Left 1h52m36s
G1 X32.166 Y108.583 E0.14935
G1 X32.655 Y108.218 E0.08111
G1 X33.105 Y107.823 E0.07963
G1 X33.549 Y107.358 E0.08552
G1 X33.937 Y106.864 E0.0834
G1 X34.267 Y106.35 E0.08128
G1 X34.559 Y105.786 E0.08433
G1 X34.789 Y105.225 E0.08065
G1 X34.97 Y104.657 E0.07923
G1 X35.11 Y104.085 E0.07823
G1 X35.212 Y103.527 E0.07539
G1 X35.291 Y102.933 E0.07961
G1 X35.381 Y101.825 E0.14785
G1 X35.479 Y99.7 E0.2827
G1 X35.567 Y98.719 E0.13095
G1 X35.721 Y97.847 E0.1176
G1 X35.838 Y97.42 E0.05885
G1 X35.981 Y97.032 E0.05506
G1 X36.152 Y96.671 E0.05312
G1 X36.352 Y96.342 E0.05115
G1 X36.584 Y96.038 E0.0508
G1 X36.854 Y95.754 E0.05208
G1 X37.167 Y95.485 E0.0549
G1 X38.451 Y94.587 E0.20816
G1 X37.39 Y92.675 E0.29053
G1 X35.986 Y93.273 E0.20292
M117 Time Left 1h52m35s
G1 X31.102 Y95.379 E0.70693
G1 X26.887 Y97.278 E0.61446
G1 X27.769 Y99.63 E0.33386
G1 X28.212 Y100.987 E0.1898
G1 X28.617 Y102.492 E0.2071
G1 X28.901 Y103.842 E0.18346
G1 X28.959 Y104.346 E0.06744
G1 X28.954 Y104.833 E0.06465
G1 X28.887 Y105.315 E0.06466
M117 Time Left 1h52m34s
G1 X28.759 Y105.784 E0.06465
G1 X28.573 Y106.233 E0.06466
G1 X28.332 Y106.656 E0.06465
G1 X28.039 Y107.044 E0.06465
G1 X27.699 Y107.392 E0.06465
G1 X27.325 Y107.689 E0.06345
G1 X26.027 Y108.446 E0.19974
G1 X25.249 Y108.978 E0.12528
G1 X24.55 Y109.558 E0.1207
G1 X23.935 Y110.188 E0.11695
G1 X23.424 Y110.859 E0.1122
G1 X23.188 Y111.245 E0.06008
G1 X22.99 Y111.632 E0.05789
G1 X22.822 Y112.039 E0.05851
G1 X22.688 Y112.465 E0.05937
G1 X22.59 Y112.91 E0.06045
G1 X22.41 Y114.36 E0.19432
G1 X23.071 Y113.939 F10800
;TYPE:External perimeter
G1 F1200
G1 X23.969 Y114.064 E0.12055
G1 X24.28 Y114.066 E0.04136
G1 X24.622 Y114.026 E0.04565
G1 X24.959 Y113.952 E0.04585
G1 X25.527 Y113.758 E0.07982
G1 X26.155 Y113.456 E0.09266
G1 X26.728 Y113.098 E0.08981
G1 X27.212 Y112.722 E0.08142
G1 X27.515 Y112.447 E0.05438
G1 X27.812 Y112.131 E0.05769
G1 X28.085 Y111.786 E0.0585
G1 X28.616 Y110.948 E0.13178
G1 X28.909 Y110.54 E0.06674
G1 X29.252 Y110.122 E0.07195
M117 Time Left 1h52m33s
G1 X29.625 Y109.724 E0.07241
G1 X30.025 Y109.349 E0.07293
G1 X30.452 Y108.998 E0.07348
G1 X30.878 Y108.688 E0.06999
G1 X31.822 Y108.086 E0.14883
G1 X32.274 Y107.749 E0.07496
G1 X32.686 Y107.387 E0.0729
G1 X33.092 Y106.961 E0.07815
G1 X33.444 Y106.514 E0.07571
G1 X33.744 Y106.047 E0.07371
G1 X34.01 Y105.533 E0.07698
G1 X34.221 Y105.018 E0.07387
G1 X34.388 Y104.493 E0.07327
G1 X34.519 Y103.959 E0.07309
G1 X34.615 Y103.433 E0.07111
G1 X34.69 Y102.869 E0.07558
G1 X34.778 Y101.786 E0.14437
G1 X34.876 Y99.659 E0.28306
G1 X34.967 Y98.647 E0.13502
G1 X35.038 Y98.167 E0.06452
G1 X35.133 Y97.706 E0.06249
G1 X35.262 Y97.236 E0.06484
G1 X35.423 Y96.797 E0.06212
G1 X35.62 Y96.383 E0.06095
G1 X35.853 Y96.001 E0.0595
G1 X36.123 Y95.646 E0.05935
G1 X36.437 Y95.315 E0.06053
G1 X36.797 Y95.007 E0.06301
G1 X37.658 Y94.404 E0.13976
G1 X37.126 Y93.444 E0.14585
G1 X36.223 Y93.828 E0.13037
M117 Time Left 1h52m31s
G1 X31.345 Y95.932 E0.70611
G1 X27.651 Y97.596 E0.53853
G1 X28.339 Y99.43 E0.26031
G1 X28.791 Y100.815 E0.19364
G1 X29.205 Y102.351 E0.21147
G1 X29.498 Y103.745 E0.18939
G1 X29.564 Y104.315 E0.0762
G1 X29.557 Y104.878 E0.07486
G1 X29.48 Y105.436 E0.07486
G1 X29.332 Y105.979 E0.07486
G1 X29.117 Y106.5 E0.07487
M117 Time Left 1h52m31s
G1 X28.837 Y106.989 E0.07486
G1 X28.498 Y107.439 E0.07486
G1 X28.105 Y107.842 E0.07486
G1 X27.667 Y108.189 E0.07428
G1 X26.35 Y108.957 E0.2026
G1 X25.613 Y109.461 E0.11868
G1 X24.96 Y110.002 E0.11272
G1 X24.394 Y110.583 E0.10783
G1 X23.923 Y111.2 E0.10318
G1 X23.716 Y111.54 E0.0529
G1 X23.539 Y111.886 E0.05159
G1 X23.39 Y112.246 E0.0518
G1 X23.272 Y112.621 E0.05231
G1 X23.186 Y113.012 E0.05314
G1 X23.082 Y113.849 E0.11218
;WIPE_START
G1 X22.991 Y114.533 F10800
;WIPE_END
